X:485
T:My Love is in America
M:C|
L:1/8
Q:200
S:THSP
R:reel
D:
Z:
K:Dmix
"D"F2FG ABcB|Ad (3ddd Ad (3ddd|F2FG ABcA|"C"GBAG FDDE|
"D"F2FG ABcB|Add^c defg|afge fdAF|1 "C"GBAG "D"FDDE:|2 "C"GBAG "D"FDDe||
|:"D"fdeg fded|Ad(3ddd Adde|fdeg fdAF|"C"GBAG FDDe|
"D"fdeg fded|Add^c defg|afge fdAF|1 "C"GBAG "D"FDDe:|2 "C"GBAG "D"FDDE||
